api/mockups/MockuPhone.svg

<svg width="148" height="19" viewBox="0 0 148 19" fill="none" xmlns="http://www.w3.org/2000/svg">
<path d="M0.608 1.536H6.032L8.336 10.608C8.512 11.296 8.768 12.536 9.104 14.328H9.224C9.512 12.456 9.736 11.216 9.896 10.608L12.2 1.536H17.384V18H13.904V7.512C13.904 7.048 13.952 6.168 14.048 4.872H13.928L13.424 6.816L10.592 18H7.28L4.448 6.816L3.944 4.872H3.824C3.92 6.216 3.968 7.096 3.968 7.512V18H0.608V1.536ZM26.3122 18.288C24.1522 18.288 22.5442 17.752 21.4882 16.68C20.4322 15.608 19.9042 13.944 19.9042 11.688C19.9042 9.432 20.4322 7.768 21.4882 6.696C22.5442 5.624 24.1522 5.088 26.3122 5.088C28.4722 5.088 30.0802 5.624 31.1362 6.696C32.2082 7.768 32.7442 9.432 32.7442 11.688C32.7442 13.944 32.2082 15.608 31.1362 16.68C30.0802 17.752 28.4722 18.288 26.3122 18.288ZM26.3122 15.6C27.3842 15.6 28.1602 15.296 28.6402 14.688C29.1202 14.064 29.3602 13.128 29.3602 11.88V11.496C29.3602 10.248 29.1202 9.32 28.6402 8.712C28.1602 8.088 27.3842 7.776 26.3122 7.776C25.2402 7.776 24.4642 8.088 23.9842 8.712C23.5202 9.32 23.2882 10.248 23.2882 11.496V11.88C23.2882 13.128 23.5202 14.064 23.9842 14.688C24.4642 15.296 25.2402 15.6 26.3122 15.6ZM40.6001 18.288C38.5841 18.288 37.0721 17.752 36.0641 16.68C35.0721 15.608 34.5761 13.944 34.5761 11.688C34.5761 9.448 35.0721 7.792 36.0641 6.72C37.0721 5.632 38.5841 5.088 40.6001 5.088C42.2801 5.088 43.6161 5.52 44.6081 6.384C45.6161 7.232 46.1201 8.48 46.1201 10.128H42.8081C42.8081 9.36 42.6081 8.768 42.2081 8.352C41.8081 7.936 41.2481 7.728 40.5281 7.728C39.6321 7.728 38.9681 8.048 38.5361 8.688C38.1201 9.312 37.9121 10.248 37.9121 11.496V11.88C37.9121 13.128 38.1281 14.072 38.5601 14.712C39.0081 15.336 39.7201 15.648 40.6961 15.648C41.3841 15.648 41.9281 15.44 42.3281 15.024C42.7441 14.592 42.9521 14 42.9521 13.248H46.1201C46.1201 14.896 45.6241 16.152 44.6321 17.016C43.6401 17.864 42.2961 18.288 40.6001 18.288ZM48.704 0.647999H51.992V10.392L56.168 5.376H59.96L55.784 10.224L60.2 18H56.432L53.672 12.648L51.992 14.28V18H48.704V0.647999ZM66.1439 18.288C64.8479 18.288 63.8239 17.936 63.0719 17.232C62.3359 16.528 61.9679 15.4 61.9679 13.848V5.376H65.2559V13.152C65.2559 13.936 65.4399 14.504 65.8079 14.856C66.1759 15.208 66.7199 15.384 67.4399 15.384C68.1759 15.384 68.7839 15.128 69.2639 14.616C69.7599 14.088 70.0079 13.44 70.0079 12.672V5.376H73.2959V18H70.4879L70.2479 16.344H70.0799C69.0559 17.64 67.7439 18.288 66.1439 18.288ZM76.6158 1.536H84.4638C86.3038 1.536 87.6878 2.008 88.6158 2.952C89.5438 3.88 90.0078 5.2 90.0078 6.912C90.0078 8.624 89.5198 9.96 88.5438 10.92C87.5838 11.864 86.1438 12.336 84.2238 12.336H80.0958V18H76.6158V1.536ZM84.1518 9.384C84.9038 9.384 85.4798 9.168 85.8798 8.736C86.2798 8.304 86.4798 7.696 86.4798 6.912C86.4798 6.144 86.2798 5.552 85.8798 5.136C85.4798 4.704 84.9038 4.488 84.1518 4.488H80.0958V9.384H84.1518ZM92.7196 0.647999H96.0076V6.84H96.1756C97.1356 5.672 98.3676 5.088 99.8716 5.088C101.168 5.088 102.184 5.44 102.92 6.144C103.672 6.848 104.048 7.976 104.048 9.528V18H100.76V10.224C100.76 9.44 100.576 8.872 100.208 8.52C99.8396 8.168 99.2956 7.992 98.5756 7.992C97.8396 7.992 97.2236 8.256 96.7276 8.784C96.2476 9.296 96.0076 9.936 96.0076 10.704V18H92.7196V0.647999ZM113.008 18.288C110.848 18.288 109.24 17.752 108.184 16.68C107.128 15.608 106.6 13.944 106.6 11.688C106.6 9.432 107.128 7.768 108.184 6.696C109.24 5.624 110.848 5.088 113.008 5.088C115.168 5.088 116.776 5.624 117.832 6.696C118.904 7.768 119.44 9.432 119.44 11.688C119.44 13.944 118.904 15.608 117.832 16.68C116.776 17.752 115.168 18.288 113.008 18.288ZM113.008 15.6C114.08 15.6 114.856 15.296 115.336 14.688C115.816 14.064 116.056 13.128 116.056 11.88V11.496C116.056 10.248 115.816 9.32 115.336 8.712C114.856 8.088 114.08 7.776 113.008 7.776C111.936 7.776 111.16 8.088 110.68 8.712C110.216 9.32 109.984 10.248 109.984 11.496V11.88C109.984 13.128 110.216 14.064 110.68 14.688C111.16 15.296 111.936 15.6 113.008 15.6ZM122.063 5.376H124.871L125.111 7.032H125.279C126.303 5.736 127.615 5.088 129.215 5.088C130.511 5.088 131.527 5.44 132.263 6.144C133.015 6.848 133.391 7.976 133.391 9.528V18H130.103V10.224C130.103 9.44 129.919 8.872 129.551 8.52C129.183 8.168 128.639 7.992 127.919 7.992C127.183 7.992 126.567 8.256 126.071 8.784C125.591 9.296 125.351 9.936 125.351 10.704V18H122.063V5.376ZM141.943 18.288C139.911 18.288 138.391 17.752 137.383 16.68C136.391 15.608 135.895 13.944 135.895 11.688C135.895 9.432 136.391 7.768 137.383 6.696C138.391 5.624 139.911 5.088 141.943 5.088C143.815 5.088 145.215 5.632 146.143 6.72C147.071 7.792 147.535 9.448 147.535 11.688V12.456H139.231C139.263 13.576 139.487 14.408 139.903 14.952C140.319 15.48 141.015 15.744 141.991 15.744C142.679 15.744 143.231 15.552 143.647 15.168C144.079 14.784 144.295 14.24 144.295 13.536H147.535C147.535 15.12 147.023 16.312 145.999 17.112C144.975 17.896 143.623 18.288 141.943 18.288ZM144.127 10.272C144.127 8.528 143.399 7.656 141.943 7.656C141.111 7.656 140.479 7.872 140.047 8.304C139.631 8.736 139.375 9.392 139.279 10.272H144.127Z" fill="black"/>
</svg>

<svg width="148" height="19" fill="none" xmlns="http://www.w3.org/2000/svg"><path d="M.608 1.536h5.424l2.304 9.072c.176.688.432 1.928.768 3.72h.12c.288-1.872.512-3.112.672-3.72L12.2 1.536h5.184V18h-3.48V7.512c0-.464.048-1.344.144-2.64h-.12l-.504 1.944L10.592 18H7.28L4.448 6.816l-.504-1.944h-.12c.096 1.344.144 2.224.144 2.64V18H.608V1.536zm25.704 16.752c-2.16 0-3.768-.536-4.824-1.608s-1.584-2.736-1.584-4.992.528-3.92 1.584-4.992 2.664-1.608 4.824-1.608c2.16 0 3.768.536 4.824 1.608 1.072 1.072 1.608 2.736 1.608 4.992s-.536 3.92-1.608 4.992c-1.056 1.072-2.664 1.608-4.824 1.608zm0-2.688c1.072 0 1.848-.304 2.328-.912.48-.624.72-1.56.72-2.808v-.384c0-1.248-.24-2.176-.72-2.784-.48-.624-1.256-.936-2.328-.936-1.072 0-1.848.312-2.328.936-.464.608-.696 1.536-.696 2.784v.384c0 1.248.232 2.184.696 2.808.48.608 1.256.912 2.328.912zM40.6 18.288c-2.016 0-3.528-.536-4.536-1.608-.992-1.072-1.488-2.736-1.488-4.992 0-2.24.496-3.896 1.488-4.968 1.008-1.088 2.52-1.632 4.536-1.632 1.68 0 3.016.432 4.008 1.296 1.008.848 1.512 2.096 1.512 3.744h-3.312c0-.768-.2-1.36-.6-1.776-.4-.416-.96-.624-1.68-.624-.896 0-1.56.32-1.992.96-.416.624-.624 1.56-.624 2.808v.384c0 1.248.216 2.192.648 2.832.448.624 1.16.936 2.136.936.688 0 1.232-.208 1.632-.624.416-.432.624-1.024.624-1.776h3.168c0 1.648-.496 2.904-1.488 3.768-.992.848-2.336 1.272-4.032 1.272zM48.704.648h3.288v9.744l4.176-5.016h3.792l-4.176 4.848L60.2 18h-3.768l-2.76-5.352-1.68 1.632V18h-3.288V.648zm17.44 17.64c-1.296 0-2.32-.352-3.072-1.056-.736-.704-1.104-1.832-1.104-3.384V5.376h3.288v7.776c0 .784.184 1.352.552 1.704.368.352.912.528 1.632.528.736 0 1.344-.256 1.824-.768.496-.528.744-1.176.744-1.944V5.376h3.288V18h-2.808l-.24-1.656h-.168c-1.024 1.296-2.336 1.944-3.936 1.944zM76.616 1.536h7.848c1.84 0 3.224.472 4.152 1.416.928.928 1.392 2.248 1.392 3.96 0 1.712-.488 3.048-1.464 4.008-.96.944-2.4 1.416-4.32 1.416h-4.128V18h-3.48V1.536zm7.536 7.848c.752 0 1.328-.216 1.728-.648.4-.432.6-1.04.6-1.824 0-.768-.2-1.36-.6-1.776-.4-.432-.976-.648-1.728-.648h-4.056v4.896h4.056zM92.72.648h3.288V6.84h.168c.96-1.168 2.192-1.752 3.696-1.752 1.296 0 2.312.352 3.048 1.056.752.704 1.128 1.832 1.128 3.384V18h-3.288v-7.776c0-.784-.184-1.352-.552-1.704-.368-.352-.912-.528-1.632-.528-.736 0-1.352.264-1.848.792-.48.512-.72 1.152-.72 1.92V18H92.72V.648zm20.288 17.64c-2.16 0-3.768-.536-4.824-1.608s-1.584-2.736-1.584-4.992.528-3.92 1.584-4.992 2.664-1.608 4.824-1.608c2.16 0 3.768.536 4.824 1.608 1.072 1.072 1.608 2.736 1.608 4.992s-.536 3.92-1.608 4.992c-1.056 1.072-2.664 1.608-4.824 1.608zm0-2.688c1.072 0 1.848-.304 2.328-.912.48-.624.72-1.56.72-2.808v-.384c0-1.248-.24-2.176-.72-2.784-.48-.624-1.256-.936-2.328-.936-1.072 0-1.848.312-2.328.936-.464.608-.696 1.536-.696 2.784v.384c0 1.248.232 2.184.696 2.808.48.608 1.256.912 2.328.912zm9.055-10.224h2.808l.24 1.656h.168c1.024-1.296 2.336-1.944 3.936-1.944 1.296 0 2.312.352 3.048 1.056.752.704 1.128 1.832 1.128 3.384V18h-3.288v-7.776c0-.784-.184-1.352-.552-1.704-.368-.352-.912-.528-1.632-.528-.736 0-1.352.264-1.848.792-.48.512-.72 1.152-.72 1.92V18h-3.288V5.376zm19.88 12.912c-2.032 0-3.552-.536-4.56-1.608-.992-1.072-1.488-2.736-1.488-4.992s.496-3.92 1.488-4.992c1.008-1.072 2.528-1.608 4.56-1.608 1.872 0 3.272.544 4.2 1.632.928 1.072 1.392 2.728 1.392 4.968v.768h-8.304c.032 1.12.256 1.952.672 2.496.416.528 1.112.792 2.088.792.688 0 1.24-.192 1.656-.576.432-.384.648-.928.648-1.632h3.24c0 1.584-.512 2.776-1.536 3.576-1.024.784-2.376 1.176-4.056 1.176zm2.184-8.016c0-1.744-.728-2.616-2.184-2.616-.832 0-1.464.216-1.896.648-.416.432-.672 1.088-.768 1.968h4.848z" fill="#000"/></svg>
